/* XPM */
static char *close_prelight_xpm[] = {
"14 14 24 2",
"   c #ea5757",
" ! c #eb4949",
" " c #eb4b4b",
" # c #eb4c4c",
" $ c #eb4e4e",
" % c #eb4f4f",
" & c #eb5151",
" ' c #eb5252",
" ( c #eb5454",
" ) c #eb5555",
" * c #eb5858",
" + c #eb5a5a",
" , c #fe6b6b",
" - c #ff5f5f",
" . c #ff6060",
" / c #ff6262",
" 0 c #ff6363",
" 1 c #ff6565",
" 2 c #ff6666",
" 3 c #ff6868",
" 4 c #ff6969",
" 5 c #ff6c6c",
" 6 c #ffffff",
" 7 c None",
" 7 7 7 7 7 7 7 7 7 7 7 7 7 7",
" 7 7 7 7 + + + + + + 7 7 7 7",
" 7 7 * * 5 5 5 5 5 5 * * 7 7",
" 7 7   6 , , , , , 6 ,   7 7",
" 7 ) 4 4 6 4 4 4 6 4 4 4 ) 7",
" 7 ( 3 3 3 6 3 6 3 3 3 3 ( 7",
" 7 ' 2 2 2 2 6 2 2 2 2 2 ' 7",
" 7 & 1 1 1 6 1 6 1 1 1 1 & 7",
" 7 % 0 0 6 0 0 0 6 0 0 0 % 7",
" 7 $ / 6 / / / / / 6 / / $ 7",
" 7 7 # . . . . . . . . # 7 7",
" 7 7 " " - - - - - - " " 7 7",
" 7 7 7 7 ! ! ! ! ! ! 7 7 7 7",
" 7 7 7 7 7 7 7 7 7 7 7 7 7 7",
};