/* XPM */
static char *close_active_xpm[] = {
"14 14 24 2",
"   c #ce2e2e",
" ! c #d03030",
" " c #d33232",
" # c #d53434",
" $ c #d73636",
" % c #da3838",
" & c #dc3b3b",
" ' c #df3d3d",
" ( c #e13f3f",
" ) c #e34141",
" * c #e44444",
" + c #e64343",
" , c #e74646",
" - c #e84545",
" . c #e94848",
" / c #eb4a4a",
" 0 c #ee4c4c",
" 1 c #f04f4f",
" 2 c #f35151",
" 3 c #f55353",
" 4 c #f75555",
" 5 c #fa5757",
" 6 c #ffffff",
" 7 c None",
" 7 7 7 7 7 7 7 7 7 7 7 7 7 7",
" 7 7 7 7 - - - - - - 7 7 7 7",
" 7 7 + + 5 5 5 5 5 5 + + 7 7",
" 7 7 ) 6 4 4 4 4 4 6 4 ) 7 7",
" 7 ( 3 3 6 3 3 3 6 3 3 3 ( 7",
" 7 ' 2 2 2 6 2 6 2 2 2 2 ' 7",
" 7 & 1 1 1 1 6 1 1 1 1 1 & 7",
" 7 % 0 0 0 6 0 6 0 0 0 0 % 7",
" 7 $ / / 6 / / / 6 / / / $ 7",
" 7 # . 6 . . . . . 6 . . # 7",
" 7 7 " , , , , , , , , " 7 7",
" 7 7 ! ! * * * * * * ! ! 7 7",
" 7 7 7 7             7 7 7 7",
" 7 7 7 7 7 7 7 7 7 7 7 7 7 7",
};