/* XPM */
static char *close_inactive_xpm[] = {
"14 14 23 2",
"   c #989898",
" ! c #9b9b9b",
" " c #9d9d9d",
" # c #a0a0a0",
" $ c #a3a3a3",
" % c #a5a5a5",
" & c #a8a8a8",
" ' c #aaaaaa",
" ( c #adadad",
" ) c #afafaf",
" * c #b0b0b0",
" + c #b1b1b1",
" , c #b2b2b2",
" - c #b4b4b4",
" . c #b5b5b5",
" / c #b7b7b7",
" 0 c #b9b9b9",
" 1 c #bcbcbc",
" 2 c #bebebe",
" 3 c #c1c1c1",
" 4 c #c4c4c4",
" 5 c #c6c6c6",
" 6 c None",
" 6 6 6 6 6 6 6 6 6 6 6 6 6 6",
" 6 6 6 6 . . . . . . 6 6 6 6",
" 6 6 , , 5 5 5 5 5 5 , , 6 6",
" 6 6 * 4 4 4 4 4 4 4 4 * 6 6",
" 6 ( 3 3 3 3 3 3 3 3 3 3 ( 6",
" 6 ' 2 2 2 2 2 2 2 2 2 2 ' 6",
" 6 & 1 1 1 1 1 1 1 1 1 1 & 6",
" 6 % 0 0 0 0 0 0 0 0 0 0 % 6",
" 6 $ / / / / / / / / / / $ 6",
" 6 # - - - - - - - - - - # 6",
" 6 6 " + + + + + + + + " 6 6",
" 6 6 ! ! ) ) ) ) ) ) ! ! 6 6",
" 6 6 6 6             6 6 6 6",
" 6 6 6 6 6 6 6 6 6 6 6 6 6 6",
};