/* XPM */
static char *close_pressed_xpm[] = {
"14 14 24 2",
"   c #ae1d1d",
" ! c #b01e1e",
" " c #b31f1f",
" # c #b52020",
" $ c #b82222",
" % c #ba2323",
" & c #bd2424",
" ' c #bf2525",
" ( c #c22727",
" ) c #c42828",
" * c #c43232",
" + c #c72929",
" , c #c73333",
" - c #c92a2a",
" . c #c93434",
" / c #cc3636",
" 0 c #ce3737",
" 1 c #d13838",
" 2 c #d33939",
" 3 c #d63b3b",
" 4 c #d83c3c",
" 5 c #db3d3d",
" 6 c #ffffff",
" 7 c None",
" 7 7 7 7 7 7 7 7 7 7 7 7 7 7",
" 7 7 7 7 - - - - - - 7 7 7 7",
" 7 7 + + 5 5 5 5 5 5 + + 7 7",
" 7 7 ) 6 4 4 4 4 4 6 4 ) 7 7",
" 7 ( 3 3 6 3 3 3 6 3 3 3 ( 7",
" 7 ' 2 2 2 6 2 6 2 2 2 2 ' 7",
" 7 & 1 1 1 1 6 1 1 1 1 1 & 7",
" 7 % 0 0 0 6 0 6 0 0 0 0 % 7",
" 7 $ / / 6 / / / 6 / / / $ 7",
" 7 # . 6 . . . . . 6 . . # 7",
" 7 7 " , , , , , , , , " 7 7",
" 7 7 ! ! * * * * * * ! ! 7 7",
" 7 7 7 7             7 7 7 7",
" 7 7 7 7 7 7 7 7 7 7 7 7 7 7",
};