/* XPM */
static char *hide_pressed_xpm[] = {
"14 14 24 2",
"   c #c09020",
" ! c #c29222",
"  c #c49424",
" # c #c69626",
" $ c #c89828",
" % c #ca9a2a",
" & c #cc9c2c",
" ' c #ce9e2e",
" ( c #d0a030",
" ) c #d2a232",
" * c #d4a434",
" + c #d6a636",
" , c #d8a838",
" - c #daaa3a",
" . c #dcac3c",
" / c #deae3e",
" 0 c #e0b040",
" 1 c #e2b242",
" 2 c #e4b444",
" 3 c #e6b646",
" 4 c #e8b848",
" 5 c #eaba4a",
" 6 c #ffffff",
" 7 c None",
" 7 7 7 7 7 7 7 7 7 7 7 7 7 7",
" 7 7 7 7 , , , , , , 7 7 7 7",
" 7 7 * * 5 5 5 5 5 5 * * 7 7",
" 7 7 ) 4 4 4 4 4 4 4 4 ) 7 7",
" 7 ( 3 3 3 3 3 3 3 3 3 3 ( 7",
" 7 ' 2 2 2 2 2 2 2 2 2 2 ' 7",
" 7 & 1 6 6 6 6 6 6 6 1 1 & 7",
" 7 % 0 0 0 0 0 0 0 0 0 0 % 7",
" 7 $ / / / / / / / / / / $ 7",
" 7 # . . . . . . . . . . # 7",
" 7 7 \" - - - - - - - - \" 7 7",
" 7 7 ! ! + + + + + + ! ! 7 7",
" 7 7 7 7             7 7 7 7",
" 7 7 7 7 7 7 7 7 7 7 7 7 7 7",
};
