/* XPM */
static char *maximize_prelight_xpm[] = {
"14 14 24 2",
"   c #eab44c",
" ! c #ebaa3a",
" " c #ebab3c",
" # c #ebac3e",
" $ c #ebad40",
" % c #ebae42",
" & c #ebaf44",
" ' c #ebb146",
" ( c #ebb248",
" ) c #ebb34a",
" * c #ebb54e",
" + c #ebb650",
" , c #fec860",
" - c #ffbf50",
" . c #ffc052",
" / c #ffc154",
" 0 c #ffc256",
" 1 c #ffc358",
" 2 c #ffc55a",
" 3 c #ffc65c",
" 4 c #ffc75e",
" 5 c #ffc962",
" 6 c #ffffff",
" 7 c None",
" 7 7 7 7 7 7 7 7 7 7 7 7 7 7",
" 7 7 7 7 + + + + + + 7 7 7 7",
" 7 7 * * 5 5 5 5 5 5 * * 7 7",
" 7 7   , , , 6 , , , ,   7 7",
" 7 ) 4 4 4 4 6 4 4 4 4 4 ) 7",
" 7 ( 3 3 3 3 6 3 3 3 3 3 ( 7",
" 7 ' 2 6 6 6 6 6 6 6 2 2 ' 7",
" 7 & 1 1 1 1 6 1 1 1 1 1 & 7",
" 7 % 0 0 0 0 6 0 0 0 0 0 % 7",
" 7 $ / / / / 6 / / / / / $ 7",
" 7 7 # . . . . . . . . # 7 7",
" 7 7 " " - - - - - - " " 7 7",
" 7 7 7 7 ! ! ! ! ! ! 7 7 7 7",
" 7 7 7 7 7 7 7 7 7 7 7 7 7 7",
};