/* XPM */
static char *maximize_pressed_xpm[] = {
"14 14 24 2",
"   c #ae6e0d",
" ! c #b0700e",
" " c #b3730f",
" # c #b57510",
" $ c #b87812",
" % c #ba7a13",
" & c #bd7d14",
" ' c #bf7f15",
" ( c #c28217",
" ) c #c48418",
" * c #c48422",
" + c #c78719",
" , c #c78723",
" - c #c9891a",
" . c #c98924",
" / c #cc8c26",
" 0 c #ce8e27",
" 1 c #d19128",
" 2 c #d39329",
" 3 c #d6962b",
" 4 c #d8982c",
" 5 c #db9b2d",
" 6 c #ffffff",
" 7 c None",
" 7 7 7 7 7 7 7 7 7 7 7 7 7 7",
" 7 7 7 7 - - - - - - 7 7 7 7",
" 7 7 + + 5 5 5 5 5 5 + + 7 7",
" 7 7 ) 4 4 4 6 4 4 4 4 ) 7 7",
" 7 ( 3 3 3 3 6 3 3 3 3 3 ( 7",
" 7 ' 2 2 2 2 6 2 2 2 2 2 ' 7",
" 7 & 1 6 6 6 6 6 6 6 1 1 & 7",
" 7 % 0 0 0 0 6 0 0 0 0 0 % 7",
" 7 $ / / / / 6 / / / / / $ 7",
" 7 # . . . . 6 . . . . . # 7",
" 7 7 " , , , , , , , , " 7 7",
" 7 7 ! ! * * * * * * ! ! 7 7",
" 7 7 7 7             7 7 7 7",
" 7 7 7 7 7 7 7 7 7 7 7 7 7 7",
};