/* XPM */
static char *maximize_toggled_active_xpm[] = {
"14 14 24 2",
"   c #28c840",
" ! c #2ac942",
"  c #2ccb44",
" # c #2ecd46",
" $ c #30ce48",
" % c #32d04a",
" & c #34d24c",
" ' c #36d44e",
" ( c #38d650",
" ) c #3ad852",
" * c #3cda54",
" + c #3edc56",
" , c #40de58",
" - c #42e05a",
" . c #44e25c",
" / c #46e45e",
" 0 c #48e660",
" 1 c #4ae862",
" 2 c #4cea64",
" 3 c #4eec66",
" 4 c #50ee68",
" 5 c #52f06a",
" 6 c #ffffff",
" 7 c None",
" 7 7 7 7 7 7 7 7 7 7 7 7 7 7",
" 7 7 7 7 - - - - - - 7 7 7 7",
" 7 7 + + 5 5 5 5 5 5 + + 7 7",
" 7 7 ) 4 4 4 6 4 4 4 4 ) 7 7",
" 7 ( 3 3 3 3 6 3 3 3 3 3 ( 7",
" 7 ' 2 2 2 2 6 2 2 2 2 2 ' 7",
" 7 & 1 6 6 6 6 6 6 6 1 1 & 7",
" 7 % 0 0 0 0 6 0 0 0 0 0 % 7",
" 7 $ / / / / 6 / / / / / $ 7",
" 7 # . . . . 6 . . . . . # 7",
" 7 7 \" , , , , , , , , \" 7 7",
" 7 7 ! ! * * * * * * ! ! 7 7",
" 7 7 7 7             7 7 7 7",
" 7 7 7 7 7 7 7 7 7 7 7 7 7 7",
};
