/* XPM */
static char *maximize_toggled_prelight_xpm[] = {
"14 14 24 2",
"   c #4ae862",
" ! c #4cea64",
"  c #4eec66",
" # c #50ee68",
" $ c #52f06a",
" % c #54f26c",
" & c #56f46e",
" ' c #58f670",
" ( c #5af872",
" ) c #5cfa74",
" * c #5efc76",
" + c #60fe78",
" , c #62ff7a",
" - c #64ff7c",
" . c #66ff7e",
" / c #68ff80",
" 0 c #6aff82",
" 1 c #6cff84",
" 2 c #6eff86",
" 3 c #70ff88",
" 4 c #72ff8a",
" 5 c #74ff8c",
" 6 c #ffffff",
" 7 c None",
" 7 7 7 7 7 7 7 7 7 7 7 7 7 7",
" 7 7 7 7 - - - - - - 7 7 7 7",
" 7 7 + + 5 5 5 5 5 5 + + 7 7",
" 7 7 ) 4 4 4 6 4 4 4 4 ) 7 7",
" 7 ( 3 3 3 3 6 3 3 3 3 3 ( 7",
" 7 ' 2 2 2 2 6 2 2 2 2 2 ' 7",
" 7 & 1 6 6 6 6 6 6 6 1 1 & 7",
" 7 % 0 0 0 0 6 0 0 0 0 0 % 7",
" 7 $ / / / / 6 / / / / / $ 7",
" 7 # . . . . 6 . . . . . # 7",
" 7 7 \" , , , , , , , , \" 7 7",
" 7 7 ! ! * * * * * * ! ! 7 7",
" 7 7 7 7             7 7 7 7",
" 7 7 7 7 7 7 7 7 7 7 7 7 7 7",
};
