/* XPM */
static char *minimize_active_xpm[] = {
"14 14 24 2",
"   c #1ead2e",
" ! c #20af31",
" " c #22b134",
" # c #24b337",
" $ c #26b539",
" % c #28b73c",
" & c #2bb93f",
" ' c #2dbb42",
" ( c #2fbd44",
" ) c #31bf47",
" * c #33c14a",
" + c #34c345",
" , c #35c34d",
" - c #36c548",
" . c #38c74b",
" / c #3ac94d",
" 0 c #3ccb50",
" 1 c #3fcd53",
" 2 c #41cf56",
" 3 c #43d158",
" 4 c #45d35b",
" 5 c #47d55e",
" 6 c #ffffff",
" 7 c None",
" 7 7 7 7 7 7 7 7 7 7 7 7 7 7",
" 7 7 7 7 , , , , , , 7 7 7 7",
" 7 7 * * 5 5 5 5 5 5 * * 7 7",
" 7 7 ) 4 4 4 4 4 4 4 4 ) 7 7",
" 7 ( 3 3 3 3 3 3 3 3 3 3 ( 7",
" 7 ' 2 2 2 2 2 2 2 2 2 2 ' 7",
" 7 & 1 6 6 6 6 6 6 6 1 1 & 7",
" 7 % 0 0 0 0 0 0 0 0 0 0 % 7",
" 7 $ / / / / / / / / / / $ 7",
" 7 # . . . . . . . . . . # 7",
" 7 7 " - - - - - - - - " 7 7",
" 7 7 ! ! + + + + + + ! ! 7 7",
" 7 7 7 7             7 7 7 7",
" 7 7 7 7 7 7 7 7 7 7 7 7 7 7",
};