/* XPM */
static char *minimize_prelight_xpm[] = {
"14 14 24 2",
"   c #3ac550",
" ! c #3cc651",
" " c #3ec652",
" # c #40c753",
" $ c #42c754",
" % c #44c855",
" & c #46c856",
" ' c #48c957",
" ( c #4ac958",
" ) c #4cca59",
" * c #4eca5a",
" + c #50cb5b",
" , c #50da65",
" - c #52da66",
" . c #54db67",
" / c #56db68",
" 0 c #58dc69",
" 1 c #5adc6a",
" 2 c #5cdd6b",
" 3 c #5edd6c",
" 4 c #60de6d",
" 5 c #62de6e",
" 6 c #ffffff",
" 7 c None",
" 7 7 7 7 7 7 7 7 7 7 7 7 7 7",
" 7 7 7 7 + + + + + + 7 7 7 7",
" 7 7 * * 5 5 5 5 5 5 * * 7 7",
" 7 7 ) 4 4 4 4 4 4 4 4 ) 7 7",
" 7 ( 3 3 3 3 3 3 3 3 3 3 ( 7",
" 7 ' 2 2 2 2 2 2 2 2 2 2 ' 7",
" 7 & 1 6 6 6 6 6 6 6 1 1 & 7",
" 7 % 0 0 0 0 0 0 0 0 0 0 % 7",
" 7 $ / / / / / / / / / / $ 7",
" 7 # . . . . . . . . . . # 7",
" 7 7 " - - - - - - - - " 7 7",
" 7 7 ! ! , , , , , , ! ! 7 7",
" 7 7 7 7             7 7 7 7",
" 7 7 7 7 7 7 7 7 7 7 7 7 7 7",
};