/* XPM */
static char *minimize_pressed_xpm[] = {
"14 14 24 2",
"   c #0d8e1d",
" ! c #0e901e",
" " c #0f931f",
" # c #109520",
" $ c #129822",
" % c #139a23",
" & c #149d24",
" ' c #159f25",
" ( c #17a227",
" ) c #18a428",
" * c #19a729",
" + c #1aa92a",
" , c #22a432",
" - c #23a733",
" . c #24a934",
" / c #26ac36",
" 0 c #27ae37",
" 1 c #28b138",
" 2 c #29b339",
" 3 c #2bb63b",
" 4 c #2cb83c",
" 5 c #2dbb3d",
" 6 c #ffffff",
" 7 c None",
" 7 7 7 7 7 7 7 7 7 7 7 7 7 7",
" 7 7 7 7 + + + + + + 7 7 7 7",
" 7 7 * * 5 5 5 5 5 5 * * 7 7",
" 7 7 ) 4 4 4 4 4 4 4 4 ) 7 7",
" 7 ( 3 3 3 3 3 3 3 3 3 3 ( 7",
" 7 ' 2 2 2 2 2 2 2 2 2 2 ' 7",
" 7 & 1 6 6 6 6 6 6 6 1 1 & 7",
" 7 % 0 0 0 0 0 0 0 0 0 0 % 7",
" 7 $ / / / / / / / / / / $ 7",
" 7 # . . . . . . . . . . # 7",
" 7 7 " - - - - - - - - " 7 7",
" 7 7 ! ! , , , , , , ! ! 7 7",
" 7 7 7 7             7 7 7 7",
" 7 7 7 7 7 7 7 7 7 7 7 7 7 7",
};