/* XPM */
static char *stick_pressed_xpm[] = {
"14 14 24 2",
"   c #333333",
" ! c #767676",
" " c #797979",
" # c #7b7b7b",
" $ c #7e7e7e",
" % c #818181",
" & c #838383",
" ' c #868686",
" ( c #888888",
" ) c #8b8b8b",
" * c #8d8d8d",
" + c #8e8e8e",
" , c #8f8f8f",
" - c #909090",
" . c #929292",
" / c #939393",
" 0 c #959595",
" 1 c #979797",
" 2 c #9a9a9a",
" 3 c #9c9c9c",
" 4 c #9f9f9f",
" 5 c #a2a2a2",
" 6 c #a4a4a4",
" 7 c None",
" 7 7 7 7 7 7 7 7 7 7 7 7 7 7",
" 7 7 7 7 / / / / / / 7 7 7 7",
" 7 7 - - 6 6 6 6 6 6 - - 7 7",
" 7 7 + 5 5 5 5 5 5 5 5 + 7 7",
" 7 ) 4 4 4 4   4 4 4 4 4 ) 7",
" 7 ( 3 3 3       3 3 3 3 ( 7",
" 7 ' 2 2           2 2 2 ' 7",
" 7 & 1 1 1       1 1 1 1 & 7",
" 7 % 0 0 0 0   0 0 0 0 0 % 7",
" 7 $ . . . . . . . . . . $ 7",
" 7 7 # , , , , , , , , # 7 7",
" 7 7 " " * * * * * * " " 7 7",
" 7 7 7 7 ! ! ! ! ! ! 7 7 7 7",
" 7 7 7 7 7 7 7 7 7 7 7 7 7 7",
};