/* XPM */
static char *stick_prelight_xpm[] = {
"14 14 24 2",
"   c #333333",
" ! c #a9a9a9",
" " c #acacac",
" # c #aeaeae",
" $ c #b1b1b1",
" % c #b4b4b4",
" & c #b6b6b6",
" ' c #b9b9b9",
" ( c #bbbbbb",
" ) c #bebebe",
" * c #c0c0c0",
" + c #c1c1c1",
" , c #c2c2c2",
" - c #c3c3c3",
" . c #c5c5c5",
" / c #c6c6c6",
" 0 c #c8c8c8",
" 1 c #cacaca",
" 2 c #cdcdcd",
" 3 c #cfcfcf",
" 4 c #d2d2d2",
" 5 c #d5d5d5",
" 6 c #d7d7d7",
" 7 c None",
" 7 7 7 7 7 7 7 7 7 7 7 7 7 7",
" 7 7 7 7 / / / / / / 7 7 7 7",
" 7 7 - - 6 6 6 6 6 6 - - 7 7",
" 7 7 + 5 5 5 5 5 5 5 5 + 7 7",
" 7 ) 4 4 4 4   4 4 4 4 4 ) 7",
" 7 ( 3 3 3       3 3 3 3 ( 7",
" 7 ' 2 2           2 2 2 ' 7",
" 7 & 1 1 1       1 1 1 1 & 7",
" 7 % 0 0 0 0   0 0 0 0 0 % 7",
" 7 $ . . . . . . . . . . $ 7",
" 7 7 # , , , , , , , , # 7 7",
" 7 7 " " * * * * * * " " 7 7",
" 7 7 7 7 ! ! ! ! ! ! 7 7 7 7",
" 7 7 7 7 7 7 7 7 7 7 7 7 7 7",
};