/* XPM */
static char *stick_active_xpm[] = {
"14 14 24 2",
"   c #333333",
" ! c #989898",
" " c #9b9b9b",
" # c #9d9d9d",
" $ c #a0a0a0",
" % c #a3a3a3",
" & c #a5a5a5",
" ' c #a8a8a8",
" ( c #aaaaaa",
" ) c #adadad",
" * c #afafaf",
" + c #b0b0b0",
" , c #b1b1b1",
" - c #b2b2b2",
" . c #b4b4b4",
" / c #b5b5b5",
" 0 c #b7b7b7",
" 1 c #b9b9b9",
" 2 c #bcbcbc",
" 3 c #bebebe",
" 4 c #c1c1c1",
" 5 c #c4c4c4",
" 6 c #c6c6c6",
" 7 c None",
" 7 7 7 7 7 7 7 7 7 7 7 7 7 7",
" 7 7 7 7 / / / / / / 7 7 7 7",
" 7 7 - - 6 6 6 6 6 6 - - 7 7",
" 7 7 + 5 5 5 5 5 5 5 5 + 7 7",
" 7 ) 4 4 4 4   4 4 4 4 4 ) 7",
" 7 ( 3 3 3       3 3 3 3 ( 7",
" 7 ' 2 2           2 2 2 ' 7",
" 7 & 1 1 1       1 1 1 1 & 7",
" 7 % 0 0 0 0   0 0 0 0 0 % 7",
" 7 $ . . . . . . . . . . $ 7",
" 7 7 # , , , , , , , , # 7 7",
" 7 7 " " * * * * * * " " 7 7",
" 7 7 7 7 ! ! ! ! ! ! 7 7 7 7",
" 7 7 7 7 7 7 7 7 7 7 7 7 7 7",
};